assets/images/sponsors-logos/cisco.svg

<svg xmlns="http://www.w3.org/2000/svg" preserveAspectRatio="xMinYMin" viewBox="0 0 299 159" width="114pt">
  <g fill="none">
    <path d="M299 49.71334c0-3.5691-2.90275-6.462185-6.46633-6.462185-3.57324 0-6.47597 2.893085-6.47597 6.462185v13.59349c0 3.58842 2.90273 6.48288 6.47597 6.48288 3.56358 0 6.46633-2.89446 6.46633-6.48288zm-35.57652-17.84137c0-3.567722-2.89446-6.466324-6.54772-6.466324-3.57324 0-6.4677 2.898602-6.4677 6.466324v31.43486c0 3.58842 2.89446 6.48288 6.4677 6.48288 3.65326 0 6.54772-2.89446 6.54772-6.48288V31.87197zM227.77385 7.463563c0-3.5691016-2.89445-6.4635645-6.46632-6.4635645-3.57323 0-6.4677 2.8944629-6.4677 6.4635645V76.2243c0 3.5898 2.89447 6.48288 6.4677 6.48288 3.57187 0 6.46632-2.89308 6.46632-6.48288zm-35.6579 24.408407c0-3.567722-2.89309-6.466324-6.46633-6.466324-3.56496 0-6.4677 2.898602-6.4677 6.466324v31.43486c0 3.58842 2.90274 6.48288 6.4677 6.48288 3.57324 0 6.46633-2.89446 6.46633-6.48288zm-35.64963 17.84137c0-3.5691-2.89309-6.462185-6.44563-6.462185-3.57324 0-6.48702 2.893085-6.48702 6.462185v13.59349c0 3.58842 2.91378 6.48288 6.48702 6.48288 3.55254 0 6.44563-2.89446 6.44563-6.48288zm-35.59169-17.84137c0-3.567722-2.91515-6.466324-6.48702-6.466324-3.57324 0-6.48839 2.898602-6.48839 6.466324v31.43486c0 3.58842 2.91515 6.48288 6.48839 6.48288 3.57187 0 6.48702-2.89446 6.48702-6.48288zM85.24156 7.463563c0-3.5691016-2.91516-6.4635645-6.4884-6.4635645-3.57186 0-6.48702 2.8944629-6.48702 6.4635645V76.2243c0 3.5898 2.91516 6.48288 6.48702 6.48288 3.57324 0 6.4884-2.89308 6.4884-6.48288zM49.607106 31.87197c0-3.567722-2.913776-6.466324-6.487016-6.466324-3.573243 0-6.48702 2.898602-6.48702 6.466324v31.43486c0 3.58842 2.913777 6.48288 6.48702 6.48288 3.57324 0 6.487016-2.89446 6.487016-6.48288zM13.974033 49.71334c0-3.5691-2.913778-6.462185-6.487018-6.462185-3.569102 0-6.4870186 2.893085-6.4870186 6.462185v13.59349c0 3.58842 2.9179166 6.48288 6.4870186 6.48288 3.57324 0 6.487018-2.89446 6.487018-6.48288zm133.928927 56.36477c-.38906-.10623-6.37527-1.65004-12.73674-1.65004-12.04417 0-19.2955 6.50357-19.2955 16.18857 0 8.57302 6.06623 12.84849 13.34653 15.14834.80709.26627 1.99633.63877 2.78823.9009 3.24075 1.01954 5.82756 2.53437 5.82756 5.15843 0 2.93447-2.98966 4.83422-9.48909 4.83422-5.71167 0-11.18742-1.63348-12.34079-1.92458v11.91586c.64291.13659 7.15062 1.41412 14.10257 1.41412 9.99956 0 21.43807-4.36929 21.43807-17.37643 0-6.30905-3.86296-12.11729-12.34355-14.81309l-3.60497-1.14785c-2.15084-.67878-5.99035-1.77834-5.99035-4.9308 0-2.49023 2.8448-4.24374 8.08325-4.24374 4.51967 0 10.02025 1.51898 10.21478 1.57968v-11.05359zm110.42694 25.16858c0 7.53416-5.771 13.62936-13.51486 13.62936-7.75214 0-13.50796-6.0952-13.50796-13.62936 0-7.51898 5.75582-13.61694 13.50796-13.61694 7.74386 0 13.51486 6.09796 13.51486 13.61694zm-13.51486-26.80206c-15.92644 0-27.3484 12.01243-27.3484 26.80206 0 14.81308 11.42196 26.81724 27.3484 26.81724 15.92506 0 27.36356-12.00416 27.36356-26.81724 0-14.78963-11.4385-26.80206-27.36356-26.80206zm-177.49625 1.8556c-1.22787-.36423-5.76685-1.8556-11.91448-1.8556-15.90161 0-27.574657 11.33779-27.574657 26.80206 0 16.68386 12.885741 26.81724 27.574657 26.81724 5.83583 0 10.29066-1.38239 11.91448-1.84318v-13.89977c-.56151.31179-4.83284 2.74822-10.97771 2.74822-8.705464 0-14.320557-6.12694-14.320557-13.82251 0-7.93011 5.857907-13.81147 14.320557-13.81147 6.24972 0 10.45207 2.49023 10.97771 2.76478zm136.39018 0c-1.23752-.36423-5.78064-1.8556-11.90757-1.8556-15.92507 0-27.59812 11.33779-27.59812 26.80206 0 16.68386 12.90092 26.81724 27.59812 26.81724 5.8041 0 10.26581-1.38239 11.90757-1.84318v-13.89977c-.57392.31179-4.85077 2.74822-10.99427 2.74822-8.69856 0-14.30813-6.12694-14.30813-13.82251 0-7.93011 5.86066-13.81147 14.30813-13.81147 6.24835 0 10.46036 2.49023 10.99427 2.76478zM98.34804 157.14234H85.28019v-51.78026h13.06785z" fill="#049fd9"/>
  </g>
</svg>

<?xml version="1.0" encoding="UTF-8" standalone="no"?>
<!DOCTYPE svg PUBLIC "-//W3C//DTD SVG 1.1//EN" "http://www.w3.org/Graphics/SVG/1.1/DTD/svg11.dtd">
<svg xmlns="http://www.w3.org/2000/svg" xmlns:xl="http://www.w3.org/1999/xlink" version="1.1" preserveAspectRatio="xMinYMin" viewBox="0 0 299 159" width="299pt" height="159pt" xmlns:dc="http://purl.org/dc/elements/1.1/">
  <metadata> Produced by OmniGraffle 7.6 
    <dc:date>2018-01-18 16:16:01 +0000</dc:date>
  </metadata>
  <defs/>
  <g stroke="none" stroke-opacity="1" stroke-dasharray="none" fill="none" fill-opacity="1">
    <title>Canvas 1</title>
    <g>
      <title>Layer 1</title>
      <path d="M 299 49.71334 C 299 46.14424 296.09725 43.251155 292.53367 43.251155 C 288.96043 43.251155 286.0577 46.14424 286.0577 49.71334 L 286.0577 63.30683 C 286.0577 66.89525 288.96043 69.78971 292.53367 69.78971 C 296.09725 69.78971 299 66.89525 299 63.30683 Z M 263.42348 31.87197 C 263.42348 28.304248 260.52902 25.405646 256.87576 25.405646 C 253.30252 25.405646 250.40806 28.304248 250.40806 31.87197 L 250.40806 63.30683 C 250.40806 66.89525 253.30252 69.78971 256.87576 69.78971 C 260.52902 69.78971 263.42348 66.89525 263.42348 63.30683 L 263.42348 31.87197 Z M 227.77385 7.463563 C 227.77385 3.8944614 224.8794 .9999985 221.30753 .9999985 C 217.7343 .9999985 214.83983 3.8944614 214.83983 7.463563 L 214.83983 76.2243 C 214.83983 79.8141 217.7343 82.70718 221.30753 82.70718 C 224.8794 82.70718 227.77385 79.8141 227.77385 76.2243 Z M 192.11595 31.87197 C 192.11595 28.304248 189.22286 25.405646 185.64962 25.405646 C 182.08466 25.405646 179.18192 28.304248 179.18192 31.87197 L 179.18192 63.30683 C 179.18192 66.89525 182.08466 69.78971 185.64962 69.78971 C 189.22286 69.78971 192.11595 66.89525 192.11595 63.30683 Z M 156.46632 49.71334 C 156.46632 46.14424 153.57323 43.251155 150.02069 43.251155 C 146.44745 43.251155 143.53367 46.14424 143.53367 49.71334 L 143.53367 63.30683 C 143.53367 66.89525 146.44745 69.78971 150.02069 69.78971 C 153.57323 69.78971 156.46632 66.89525 156.46632 63.30683 Z M 120.87463 31.87197 C 120.87463 28.304248 117.95948 25.405646 114.38761 25.405646 C 110.81437 25.405646 107.89922 28.304248 107.89922 31.87197 L 107.89922 63.30683 C 107.89922 66.89525 110.81437 69.78971 114.38761 69.78971 C 117.95948 69.78971 120.87463 66.89525 120.87463 63.30683 Z M 85.24156 7.463563 C 85.24156 3.8944614 82.3264 .9999985 78.75316 .9999985 C 75.1813 .9999985 72.26614 3.8944614 72.26614 7.463563 L 72.26614 76.2243 C 72.26614 79.8141 75.1813 82.70718 78.75316 82.70718 C 82.3264 82.70718 85.24156 79.8141 85.24156 76.2243 Z M 49.607106 31.87197 C 49.607106 28.304248 46.69333 25.405646 43.12009 25.405646 C 39.546847 25.405646 36.63307 28.304248 36.63307 31.87197 L 36.63307 63.30683 C 36.63307 66.89525 39.546847 69.78971 43.12009 69.78971 C 46.69333 69.78971 49.607106 66.89525 49.607106 63.30683 Z M 13.974033 49.71334 C 13.974033 46.14424 11.060255 43.251155 7.487015 43.251155 C 3.917913 43.251155 .9999964 46.14424 .9999964 49.71334 L .9999964 63.30683 C .9999964 66.89525 3.917913 69.78971 7.487015 69.78971 C 11.060255 69.78971 13.974033 66.89525 13.974033 63.30683 Z M 147.90296 106.07811 C 147.5139 105.97188 141.52769 104.42807 135.16622 104.42807 C 123.12205 104.42807 115.87072 110.93164 115.87072 120.61664 C 115.87072 129.18966 121.93695 133.46513 129.21725 135.76498 C 130.02434 136.03125 131.21358 136.40375 132.00548 136.66588 C 135.24623 137.68542 137.83304 139.20025 137.83304 141.82431 C 137.83304 144.75878 134.84338 146.65853 128.34395 146.65853 C 122.63228 146.65853 117.15653 145.02505 116.00316 144.73395 L 116.00316 156.64981 C 116.64607 156.7864 123.15378 158.06393 130.10573 158.06393 C 140.10529 158.06393 151.5438 153.69464 151.5438 140.6875 C 151.5438 134.37845 147.68084 128.57021 139.20025 125.87441 L 135.59528 124.72656 C 133.44444 124.04778 129.60493 122.94822 129.60493 119.79576 C 129.60493 117.30553 132.44973 115.55202 137.68818 115.55202 C 142.20785 115.55202 147.70843 117.071 147.90296 117.1317 L 147.90296 106.07811 Z M 258.3299 131.24669 C 258.3299 138.78085 252.5589 144.87605 244.81504 144.87605 C 237.0629 144.87605 231.30708 138.78085 231.30708 131.24669 C 231.30708 123.72771 237.0629 117.62975 244.81504 117.62975 C 252.5589 117.62975 258.3299 123.72771 258.3299 131.24669 Z M 244.81504 104.44463 C 228.8886 104.44463 217.46664 116.45706 217.46664 131.24669 C 217.46664 146.05977 228.8886 158.06393 244.81504 158.06393 C 260.7401 158.06393 272.1786 146.05977 272.1786 131.24669 C 272.1786 116.45706 260.7401 104.44463 244.81504 104.44463 Z M 67.31879 106.30023 C 66.09092 105.936 61.55194 104.44463 55.40431 104.44463 C 39.5027 104.44463 27.829653 115.78242 27.829653 131.24669 C 27.829653 147.93055 40.715394 158.06393 55.40431 158.06393 C 61.24014 158.06393 65.69497 156.68154 67.31879 156.22075 L 67.31879 142.32098 C 66.75728 142.63277 62.48595 145.0692 56.34108 145.0692 C 47.635616 145.0692 42.020523 138.94226 42.020523 131.24669 C 42.020523 123.31658 47.87843 117.43522 56.34108 117.43522 C 62.5908 117.43522 66.79315 119.92545 67.31879 120.2 Z M 203.70897 106.30023 C 202.47145 105.936 197.92833 104.44463 191.8014 104.44463 C 175.87633 104.44463 164.20328 115.78242 164.20328 131.24669 C 164.20328 147.93055 177.1042 158.06393 191.8014 158.06393 C 197.6055 158.06393 202.06721 156.68154 203.70897 156.22075 L 203.70897 142.32098 C 203.13505 142.63277 198.8582 145.0692 192.7147 145.0692 C 184.01614 145.0692 178.40657 138.94226 178.40657 131.24669 C 178.40657 123.31658 184.26723 117.43522 192.7147 117.43522 C 198.96305 117.43522 203.17506 119.92545 203.70897 120.2 Z M 98.34804 157.14234 L 85.28019 157.14234 L 85.28019 105.36208 L 98.34804 105.36208 Z" fill="#049fd9"/>
    </g>
  </g>
</svg>
